mobile/apps/auth/assets/custom-icons/icons/unitedhealthgroup.svg

<?xml version="1.0" encoding="UTF-8"?>
<svg version="1.1" xmlns="http://www.w3.org/2000/svg" width="78" height="167">
<path d="M0 0 C25.74 0 51.48 0 78 0 C78 55.11 78 110.22 78 167 C52.26 167 26.52 167 0 167 C0 111.89 0 56.78 0 0 Z " fill="#2C4399" transform="translate(0,0)"/>
<path d="M0 0 C25.74 0 51.48 0 78 0 C78 55.11 78 110.22 78 167 C52.26 167 26.52 167 0 167 C0 111.89 0 56.78 0 0 Z M68.875 4.5 C67.23144531 5.47453125 67.23144531 5.47453125 65.5546875 6.46875 C64.71164063 6.9740625 63.86859375 7.479375 63 8 C65.64738916 9.4606285 66.89448334 10 70 10 C69.93830808 22.39779811 69.8608661 34.79539403 69.76428509 47.19297218 C69.71989435 52.95203836 69.68057283 58.71103884 69.65356445 64.47021484 C69.62721476 70.04657089 69.58659916 75.62266972 69.53681374 81.19886398 C69.52035594 83.30745576 69.50871246 85.4160918 69.50238609 87.52473831 C69.33861197 137.1772271 69.33861197 137.1772271 53.49609375 153.5546875 C47.12823139 159.1743676 41.2212434 160.52882202 33 161 C33 160.34 33 159.68 33 159 C33.86625 158.9175 34.7325 158.835 35.625 158.75 C43.45178728 157.01071394 48.29288255 151.17566029 53 145 C60.9561977 132.47103919 62.16886032 117.90078421 62.11352539 103.43139648 C62.11367142 102.41571091 62.11381744 101.40002533 62.1139679 100.3535614 C62.11327617 97.02604978 62.10551868 93.69859548 62.09765625 90.37109375 C62.09578944 88.05225149 62.09436678 85.73340884 62.09336853 83.41456604 C62.08956408 77.33355608 62.07975161 71.25257029 62.06866455 65.17156982 C62.05840576 58.95748217 62.05386136 52.74339057 62.04882812 46.52929688 C62.03812737 34.35285401 62.02107599 22.17642902 62 10 C58.65519565 10.61887309 56.10303848 11.29030994 53.1875 13.0625 C52.135625 13.701875 51.08375 14.34125 50 15 C50 15.66 50 16.32 50 17 C51.98 17.33 53.96 17.66 56 18 C55.89200583 29.37969391 55.77927758 40.75933045 55.66066074 52.13891888 C55.60571578 57.42405475 55.55234448 62.70919637 55.50268555 67.99438477 C55.45461863 73.10376623 55.40226655 78.21308811 55.34705925 83.32239723 C55.32682558 85.26260692 55.30808383 87.20283281 55.29092598 89.14307213 C54.88848297 134.15729704 54.88848297 134.15729704 43.3125 145.6796875 C41.76499819 146.92611934 41.76499819 146.92611934 42 149 C35.94726482 152.13845528 30.76956684 153.43955656 24 154 C24 153.34 24 152.68 24 152 C24.845625 151.95875 25.69125 151.9175 26.5625 151.875 C33.15686816 150.19643356 36.73948137 145.76442226 40.25 140.125 C48.82680499 124.7734315 48.28311356 108.63837024 48.1953125 91.51171875 C48.19157539 89.35553622 48.18873172 87.19935196 48.18673706 85.04316711 C48.17915557 79.40934435 48.15955507 73.77562718 48.1373291 68.1418457 C48.1167516 62.37647937 48.10771005 56.61109572 48.09765625 50.84570312 C48.07630328 39.56375608 48.04223471 28.28188687 48 17 C43.40953257 18.42728819 39.92382624 20.19726697 36 23 C36.495 23.99 36.495 23.99 37 25 C38.32 25 39.64 25 41 25 C40.9617497 36.58878464 40.90210989 48.17725106 40.81609726 59.76578522 C40.77679847 65.1483929 40.7445244 70.53084129 40.72900391 75.91357422 C40.7137205 81.12039504 40.67907122 86.32677738 40.63169098 91.53340149 C40.6169966 93.50739198 40.60896595 95.48144511 40.60811615 97.45549011 C40.59544886 112.14335503 40.50474129 129.91453455 30.5078125 141.76953125 C26.10604089 146.10030655 22.07597852 146.97244454 16 147 C16 146.34 16 145.68 16 145 C16.721875 144.938125 17.44375 144.87625 18.1875 144.8125 C23.47515515 143.28495518 26.00671032 139.23933936 28.6875 134.6875 C35.54258946 121.66497897 34.1382806 106.27427985 34.09765625 91.9921875 C34.0957884 90.05591875 34.09436623 88.11964952 34.09336853 86.18338013 C34.08957228 81.11672636 34.07976705 76.0501018 34.06866455 70.98345947 C34.05838789 65.801477 34.05385757 60.61948975 34.04882812 55.4375 C34.03814188 45.29165392 34.02110066 35.1458294 34 25 C29.58565636 25.61099433 26.28637952 27.2599125 22.38671875 29.37890625 C21.77230423 29.71043198 21.15788971 30.0419577 20.52485657 30.38352966 C18.57568605 31.4370754 16.63159063 32.49961495 14.6875 33.5625 C13.36165361 34.28119973 12.03548491 34.99930522 10.70898438 35.71679688 C7.46889671 37.47100093 4.23329555 39.2333017 1 41 C0.9535046 51.89262737 0.91804375 62.78523083 0.89637566 73.67793751 C0.88597211 78.73674354 0.87187601 83.7954813 0.84912109 88.85424805 C0.82726984 93.74313204 0.81540563 98.63195066 0.81024551 103.52087975 C0.8065717 105.3790356 0.7993981 107.23718818 0.78853989 109.09531593 C-0.08678905 128.33937073 -0.08678905 128.33937073 8 145 C9.32241354 145.37431445 10.65593751 145.71297228 12 146 C13.0625 147.875 13.0625 147.875 14 150 C15.35444301 151.77190909 15.35444301 151.77190909 17 153 C17.99 153 18.98 153 20 153 C20.309375 154.11375 20.309375 154.11375 20.625 155.25 C22.42139782 158.84279563 24.59690165 159.93145002 28 162 C29.14662109 163.03060547 29.14662109 163.03060547 30.31640625 164.08203125 C35.14114735 167.53028144 40.32331857 166.83136753 46 166 C55.70927431 162.73809157 62.76211446 155.6468157 67.78515625 146.88671875 C71.24103316 139.79665187 73.45658229 132.7128353 75 125 C75.18239227 124.08902557 75.36478455 123.17805115 75.55270386 122.23947144 C77.61309365 110.07892029 77.25080057 97.86510748 77.1953125 85.5703125 C77.19157588 83.12409583 77.18873198 80.67787765 77.18673706 78.23165894 C77.17915167 71.83668789 77.15954764 65.44180971 77.1373291 59.046875 C77.11676017 52.50391902 77.10771186 45.96094784 77.09765625 39.41796875 C77.07629637 26.61193987 77.04261495 13.80597491 77 1 C73.7841778 1 71.60010551 2.87653289 68.875 4.5 Z " fill="#F8F9FB" transform="translate(0,0)"/>
<path d="M0 0 C0.33 0.66 0.66 1.32 1 2 C4.02934491 2.65772428 4.02934491 2.65772428 7 3 C7.02326584 14.3796352 7.04098725 25.75926465 7.05181217 37.13891888 C7.05701002 42.42408278 7.0640508 47.70923029 7.07543945 52.99438477 C7.08637918 58.10372387 7.09230012 63.21304731 7.09487724 68.32239723 C7.09671165 70.2626247 7.10029339 72.20285141 7.10573006 74.14307213 C7.22719998 119.32820002 7.22719998 119.32820002 -7 134 C-11.63305055 137.40387388 -14.9380301 139.14582565 -20.6875 139.0625 C-21.49574219 139.05347656 -22.30398437 139.04445312 -23.13671875 139.03515625 C-24.05904297 139.01775391 -24.05904297 139.01775391 -25 139 C-25 138.34 -25 137.68 -25 137 C-24.43152344 136.81566406 -23.86304687 136.63132813 -23.27734375 136.44140625 C-16.36153665 133.84364899 -12.94782667 130.1433543 -9 124 C-8.39865234 123.12601563 -8.39865234 123.12601563 -7.78515625 122.234375 C0.03669596 109.129083 -1.59481314 90.50116967 -1.70703125 75.90234375 C-1.7126413 73.7294596 -1.71690472 71.55657159 -1.71989441 69.38368225 C-1.73123236 63.72355273 -1.76060167 58.06366203 -1.79400635 52.40362549 C-1.82494833 46.60440296 -1.8384508 40.80514104 -1.85351562 35.00585938 C-1.88548419 23.67046922 -1.93654326 12.33525463 -2 1 C-1.34 0.67 -0.68 0.34 0 0 Z " fill="#EFF1F7" transform="translate(49,15)"/>
<path d="M0 0 C2.31 0.66 4.62 1.32 7 2 C7.0931934 13.58852534 7.1640133 25.17695969 7.20724869 36.76578522 C7.22801259 42.14851741 7.25612267 47.53099087 7.30175781 52.91357422 C7.34561867 58.12020872 7.369221 63.32659632 7.37950897 68.53340149 C7.38682882 70.5074705 7.40111984 72.48152791 7.42292023 74.45549011 C7.58119425 89.39804214 7.46666533 106.99043439 -2.71484375 119.02734375 C-6.30395262 122.61645262 -8.82658002 124.42935288 -14 124.4375 C-15.33671384 124.32685983 -16.67275437 124.19355665 -18 124 C-18 123.34 -18 122.68 -18 122 C-16.96875 121.71125 -15.9375 121.4225 -14.875 121.125 C-9.50892019 118.81128542 -7.38133263 114.08837945 -5 109 C-1.26732194 99.60294668 -0.83648945 89.81311379 -0.90234375 79.80249023 C-0.90453415 78.51523796 -0.90453415 78.51523796 -0.9067688 77.20198059 C-0.91054206 75.35998891 -0.91662317 73.51800072 -0.92483521 71.67602348 C-0.93769735 68.76391242 -0.94413818 65.85184732 -0.94897461 62.93971252 C-0.96033996 56.77228746 -0.97962458 50.60490099 -1 44.4375 C-1.02358873 37.25750578 -1.04394506 30.07753234 -1.05593872 22.89750862 C-1.06243937 20.02290632 -1.07493912 17.14836907 -1.08764648 14.27378845 C-1.09127587 12.52684588 -1.09462798 10.7799027 -1.09765625 9.03295898 C-1.10282257 8.22939972 -1.10798889 7.42584045 -1.11331177 6.59793091 C-1.11349265 4.73157172 -1.06239665 2.86531588 -1 1 C-0.67 0.67 -0.34 0.34 0 0 Z " fill="#F9FAFC" transform="translate(34,23)"/>
<path d="M0 0 C0.99 0.33 1.98 0.66 3 1 C2.01 1.495 2.01 1.495 1 2 C1 27.08 1 52.16 1 78 C0.67 78 0.34 78 0 78 C-0.15358268 67.97779948 -0.30176443 57.95553529 -0.4429636 47.9331522 C-0.50869268 43.27985307 -0.5763142 38.62659718 -0.64819336 33.97338867 C-0.7174331 29.48661171 -0.78178974 24.99978933 -0.84269524 20.51289177 C-0.86685555 18.79717381 -0.89280478 17.08148011 -0.92053413 15.36581612 C-0.95893753 12.97121099 -0.99109989 10.57660013 -1.02172852 8.18188477 C-1.03467453 7.46547318 -1.04762054 6.74906158 -1.06095886 6.01094055 C-1.0790691 4.34060162 -1.04514946 2.66982684 -1 1 C-0.67 0.67 -0.34 0.34 0 0 Z " fill="#CDD2E6" transform="translate(34,23)"/>
</svg>

<svg xmlns="http://www.w3.org/2000/svg" viewBox="0 0 78 167"><path fill="#2C4399" d="M0 0h78v167H0V0Z"/><path fill="#F8F9FB" d="M0 0h78v167H0V0Zm68.875 4.5-3.32 1.969L63 8c2.647 1.46 3.894 2 7 2-.062 12.398-.14 24.795-.236 37.193-.044 5.759-.083 11.518-.11 17.277a3980.46 3980.46 0 0 1-.117 16.729c-.017 2.108-.028 4.217-.035 6.326-.163 49.652-.163 49.652-16.006 66.03-6.368 5.62-12.275 6.974-20.496 7.445v-2l2.625-.25C43.452 157.01 48.293 151.176 53 145c7.956-12.529 9.169-27.1 9.114-41.569v-3.077c0-3.328-.008-6.655-.016-9.983l-.005-6.956c-.003-6.081-.013-12.162-.024-18.243-.01-6.215-.015-12.429-.02-18.643C62.039 34.353 62.02 22.176 62 10c-3.345.619-5.897 1.29-8.813 3.063L50 15v2l6 1c-.108 11.38-.22 22.76-.34 34.139-.054 5.285-.108 10.57-.157 15.855-.048 5.11-.1 10.22-.156 15.328-.02 1.94-.039 3.88-.056 5.821-.403 45.014-.403 45.014-11.978 56.537-1.548 1.246-1.548 1.246-1.313 3.32-6.053 3.138-11.23 4.44-18 5v-2l2.563-.125c6.594-1.679 10.176-6.11 13.687-11.75 8.577-15.352 8.033-31.487 7.945-48.613l-.008-6.469a6502.02 6502.02 0 0 0-.05-16.901c-.02-5.766-.03-11.53-.04-17.296C48.078 39.564 48.043 28.282 48 17c-4.59 1.427-8.076 3.197-12 6l1 2h4a8435.367 8435.367 0 0 1-.184 34.766c-.04 5.382-.071 10.765-.087 16.148-.015 5.206-.05 10.413-.097 15.62a844.41 844.41 0 0 0-.024 5.921c-.013 14.688-.103 32.46-10.1 44.315-4.402 4.33-8.432 5.202-14.508 5.23v-2l2.188-.188c5.287-1.527 7.819-5.573 10.5-10.125 6.855-13.022 5.45-28.413 5.41-42.695l-.005-5.809c-.003-5.066-.013-10.133-.024-15.2-.01-5.182-.015-10.364-.02-15.546C34.039 45.293 34.02 35.147 34 25c-4.414.611-7.714 2.26-11.613 4.379l-1.862 1.005c-1.95 1.053-3.893 2.116-5.837 3.178a4966.65 4966.65 0 0 1-3.979 2.155C7.469 37.47 4.233 39.233 1 41 .954 51.893.918 62.785.896 73.678.886 78.737.872 83.795.85 88.854c-.022 4.89-.034 9.778-.039 14.667-.003 1.858-.01 3.716-.021 5.574C-.087 128.34-.087 128.34 8 145c1.322.374 2.656.713 4 1 1.063 1.875 1.063 1.875 2 4 1.354 1.772 1.354 1.772 3 3h3l.625 2.25c1.796 3.593 3.972 4.681 7.375 6.75l2.316 2.082C35.141 167.53 40.323 166.832 46 166c9.71-3.262 16.762-10.353 21.785-19.113 3.456-7.09 5.672-14.174 7.215-21.887l.553-2.76c2.06-12.161 1.698-24.375 1.642-36.67l-.008-7.338a8384.1 8384.1 0 0 0-.05-19.185c-.02-6.543-.03-13.086-.04-19.629C77.078 26.612 77.044 13.806 77 1c-3.216 0-5.4 1.877-8.125 3.5Z"/><path fill="#EFF1F7" d="m49 15 1 2c3.03.658 3.03.658 6 1 .023 11.38.041 22.76.052 34.139.005 5.285.012 10.57.023 15.855.011 5.11.017 10.219.02 15.328.002 1.94.005 3.88.01 5.821.122 45.185.122 45.185-14.105 59.857-4.633 3.404-7.938 5.146-13.688 5.063l-2.449-.028L24 154v-2l1.723-.559C32.638 148.844 36.053 145.143 40 139l1.215-1.766c7.822-13.105 6.19-31.733 6.078-46.332a4355.358 4355.358 0 0 0-.087-23.499c-.03-5.799-.044-11.598-.06-17.397C47.115 38.67 47.063 27.336 47 16l2-1Z"/><path fill="#F9FAFC" d="m34 23 7 2c.093 11.589.164 23.177.207 34.766.021 5.383.05 10.765.095 16.148.044 5.206.067 10.413.078 15.62.007 1.973.021 3.948.043 5.921.158 14.943.044 32.535-10.138 44.572-3.589 3.59-6.112 5.402-11.285 5.41a64.687 64.687 0 0 1-4-.437v-2l3.125-.875c5.366-2.314 7.494-7.037 9.875-12.125 3.733-9.397 4.164-19.187 4.098-29.198l-.005-2.6c-.004-1.842-.01-3.684-.018-5.526-.013-2.912-.02-5.824-.024-8.736-.011-6.168-.03-12.335-.051-18.502-.024-7.18-.044-14.36-.056-21.54-.006-2.875-.019-5.75-.032-8.624l-.01-5.241-.015-2.435c0-1.866.05-3.733.113-5.598l1-1Z"/><path fill="#CDD2E6" d="m34 23 3 1-2 1v76h-1c-.154-10.022-.302-20.044-.443-30.067-.066-4.653-.133-9.306-.205-13.96-.07-4.486-.134-8.973-.195-13.46-.024-1.716-.05-3.432-.078-5.147-.038-2.395-.07-4.79-.1-7.184l-.04-2.171c-.018-1.67.016-3.341.061-5.011l1-1Z"/></svg>
